X:1
T:Title
%%score { 1 | 2 }
L:1/8
M:6/4
K:F
V:1 treble nm="Grand Piano"
V:2 bass 
V:1
 z6 z4[Q:1/4=189] c2 | c2 A2 G2 F2 G2 A2 | c2 d2 A2 c4 [Ac]2 | %3
 [Ge]2 [Bd]2 [Ac]2 [GB]2 [FA]2 [EG]2 | A2 G2 F2 [EG]4 [Ec]2 | c2 A2 G2 F2 G2 A2 | %6
 A2 B2 c2 d4 [Fd]2 | [Fc]2 [CFA]2 [=B,F]2 [CEA]4 [_B,EG]2 |[M:5/4] [A,CF]2- [A,CF]2- [A,CF]6 | %9
[M:1/4] [CAc]2 |[M:6/4] [Be] [Be]3 [Bd]2 [EBc] [EBc]3 [DEB]2 | A A3 d2 c4 c2 | %12
 [Be]2 [Be]3 [Bd] [EBc] [EBc]3 [DEB]2 | [CFA]2 [B,CG]2 [A,CF]2 [Ec]4 [Ec]2 | c2 A2 G2 F2 G2 A2 | %15
[M:7/4] A2 B2 c2 d6 f2 |[M:6/4] f2 c2 A2 [EA]4 [EG]2 |[M:5/4] [CF]2- [CF]2- [CF]6 |] %18
V:2
 z6 z4 [F,A,F]2 | [F,A,F]2 [F,CF]2 [F,B,C]2 [F,A,C]2 [F,B,C]2 [F,CF]2 | %2
 [F,A,F]2 [F,A,F]2 [F,CF]2 [F,A,F]4 [F,C]2 | [C,C]2 [C,C]2 [C,C]2 [C,C]2 [C,C]2 [C,C]2 | %4
 [F,CF]2 [F,B,C]2 [F,A,C]2 [C,C]4 [C,B,]2 | %5
 [F,A,F]2 [F,CF]2 [F,B,C]2 [F,A,C]2 [F,B,D]2[K:treble] [F,CF]2 | %6
 [F,CF]2 [G,CE]2 [A,CF]2 [B,F]4[K:bass] [B,,B,]2 | [C,A,]2 C,2 D,2 C,4 C,2 |[M:5/4] F,2- F,2- F,6 | %9
[M:1/4] F,2 |[M:6/4] [G,C] [G,C]3 [C,C]2 G, G,3 C,2 | [F,CF] [F,CF]3 [F,B,F]2 [F,A,F]4 [F,A,F]2 | %12
 [G,C]2 [C,C]3 [C,C] G, G,3 C,2 | F,2 F,2 F,2 [C,G,]4 [C,B,]2 | %14
 [F,A,F]2 [F,CF]2 [F,B,C]2 [F,A,C]2 [F,B,C]2[K:treble] [F,CF]2 | %15
[M:7/4] [F,CF]2 [G,CE]2 [A,CF]2 [B,F]6 [B,DB]2 |[M:6/4] [CA]2 [CFA]2 [CF]2[K:bass] [C,C]4 [C,B,]2 | %17
[M:5/4] [F,A,]2- [F,A,]2- [F,A,]6 |] %18

